src/main/resources/icons/AllIcons/actions/preview.svg

<!-- Copyright 2000-2021 JetBrains s.r.o. Use of this source code is governed by the Apache 2.0 license that can be found in the LICENSE file. -->
<svg xmlns="http://www.w3.org/2000/svg" width="16" height="16" viewBox="0 0 16 16">
  <g fill="none" fill-rule="evenodd">
    <g fill="#6E6E6E" transform="translate(1 4)">
      <rect width="1.76" height="4.994" x="8.126" y="6.429" transform="rotate(-45 9.006 8.926)"/>
      <path d="M4.6,9.2 C2.05949015,9.2 -4e-16,7.14050985 -4e-16,4.6 C-4e-16,2.05949015 2.05949015,0 4.6,0 C7.14050985,0 9.2,2.05949015 9.2,4.6 C9.2,7.14050985 7.14050985,9.2 4.6,9.2 Z M4.6,7.6 C6.25685425,7.6 7.6,6.25685425 7.6,4.6 C7.6,2.94314575 6.25685425,1.6 4.6,1.6 C2.94314575,1.6 1.6,2.94314575 1.6,4.6 C1.6,6.25685425 2.94314575,7.6 4.6,7.6 Z"/>
    </g>
    <path fill="#6E6E6E" d="M9.88969094,5 C9.57081021,4.62042576 9.20247796,4.2837855 8.79461496,4 L13,4 L13,3 L8,3 L8,3.53890499 C7.38650137,3.24746356 6.71160471,3.06428711 6,3.01406563 L6,1 L15,1 L15,11 L10.6610948,11 C11.006647,10.2725957 11.1999998,9.45887778 11.1999998,8.5999999 C11.1999998,8.39730439 11.1892308,8.19712411 11.1682337,8 L13,8 L13,7 L10.9680969,7 C10.8642932,6.65121416 10.7274236,6.31666911 10.5611234,6 L13,6 L13,5 L9.88969094,5 Z"/>
  </g>
</svg>

<svg xmlns="http://www.w3.org/2000/svg" width="16" height="16" viewBox="0 0 16 16"><rect id="frame" width="16" height="16" fill="none"/><g fill="#6E6E6E" fill-rule="evenodd"><path d="M7.618 11.783l1.245-1.245 3.53 3.531-1.244 1.245z"/><path d="M5.6 13.2a4.6 4.6 0 1 1 0-9.2 4.6 4.6 0 0 1 0 9.2zm0-1.6a3 3 0 1 0 0-6 3 3 0 0 0 0 6z"/><path d="M9.89 5a5.632 5.632 0 0 0-1.095-1H13V3H8v.539a5.567 5.567 0 0 0-2-.525V1h9v10h-4.339a5.578 5.578 0 0 0 .507-3H13V7h-2.032a5.564 5.564 0 0 0-.407-1H13V5H9.89z"/></g></svg>
